assets/icons/play.svg

<svg fill="none" height="800" viewBox="0 0 24 24" width="800" xmlns="http://www.w3.org/2000/svg"><path d="m16.6582 9.28638c1.4398.89982 2.1596 1.34972 2.4065 1.92582.2156.503.2156 1.0725 0 1.5756-.2469.576-.9667 1.0259-2.4065 1.9258l-6.7622 4.2264c-1.59795.9987-2.39693 1.4981-3.05627 1.445-.57472-.0462-1.10155-.3381-1.44533-.801-.3944-.531-.3944-1.4732-.3944-3.3576v-8.45283c0-1.88438 0-2.82656.3944-3.35759.34378-.46288.87061-.75487 1.44533-.80108.65934-.053 1.45832.44636 3.05627 1.44508z" stroke="#000" stroke-linejoin="round" stroke-width="2"/></svg>

<?xml version="1.0" encoding="utf-8"?><!-- Uploaded to: SVG Repo, www.svgrepo.com, Generator: SVG Repo Mixer Tools -->
<svg width="800px" height="800px" viewBox="0 0 24 24" fill="none" xmlns="http://www.w3.org/2000/svg">
<path d="M16.6582 9.28638C18.098 10.1862 18.8178 10.6361 19.0647 11.2122C19.2803 11.7152 19.2803 12.2847 19.0647 12.7878C18.8178 13.3638 18.098 13.8137 16.6582 14.7136L9.896 18.94C8.29805 19.9387 7.49907 20.4381 6.83973 20.385C6.26501 20.3388 5.73818 20.0469 5.3944 19.584C5 19.053 5 18.1108 5 16.2264V7.77357C5 5.88919 5 4.94701 5.3944 4.41598C5.73818 3.9531 6.26501 3.66111 6.83973 3.6149C7.49907 3.5619 8.29805 4.06126 9.896 5.05998L16.6582 9.28638Z" stroke="#000000" stroke-width="2" stroke-linejoin="round"/>
</svg>
